public/pieces/monochrome/wR.svg

<svg enable-background="new 0 0 141.7 141.7" image-rendering="optimizeQuality" shape-rendering="geometricPrecision" text-rendering="geometricPrecision" viewBox="0 0 141.7 141.7" xmlns="http://www.w3.org/2000/svg"><path clip-rule="evenodd" d="m105.1 111.4v-13.3l-11-11v-30.9l14.4-11v-24.4h-17.7v8.8h-11v-8.8h-17.7v8.8h-11.1v-8.8h-17.6v24.3l14.4 11v30.9l-11 11v13.2h-9.9v15.5h88.3v-15.5c-.1.2-10.1.2-10.1.2zm-62.6-65.2-4.7-3.6v-2.9h33.1 33v2.9l-4.6 3.6zm5.8 4.4h22.6 22.6l-3.9 3v3.7h-37.5v-3.7zm3.8 38.3v-2.9h18.8 18.8v2.9l3.9 3.8h-45.3zm48.6 28h-59.5v-6.6h59.5zm0-13.3h-59.5v-3.8l2.9-2.8h26.8 26.8l2.9 2.8z" fill="#dae2e5" fill-rule="evenodd"/></svg>

<?xml version="1.0" encoding="utf-8"?>
<!-- Generator: Adobe Illustrator 27.3.1, SVG Export Plug-In . SVG Version: 6.00 Build 0)  -->
<svg version="1.1"
	 id="Layer_1" text-rendering="geometricPrecision" shape-rendering="geometricPrecision" image-rendering="optimizeQuality"
	 xmlns="http://www.w3.org/2000/svg" xmlns:xlink="http://www.w3.org/1999/xlink" x="0px" y="0px" viewBox="0 0 141.7 141.7"
	 style="enable-background:new 0 0 141.7 141.7;" xml:space="preserve">
<style type="text/css">
	.st0{fill-rule:evenodd;clip-rule:evenodd;fill:#DAE2E5;}
</style>
<path class="st0" d="M105.1,111.4V98.1l-11-11V56.2l14.4-11V20.8H90.8v8.8h-11v-8.8H62.1v8.8H51v-8.8H33.4v24.3l14.4,11v30.9l-11,11
	v13.2h-9.9v15.5h88.3v-15.5C115.1,111.4,105.1,111.4,105.1,111.4z M42.5,46.2l-4.7-3.6v-2.9h33.1h33v2.9l-4.6,3.6
	C99.3,46.2,42.5,46.2,42.5,46.2z M48.3,50.6h22.6h22.6l-3.9,3v3.7H52.1v-3.7L48.3,50.6z M52.1,88.9V86h18.8h18.8v2.9l3.9,3.8H48.3
	L52.1,88.9z M100.7,116.9H41.2v-6.6h59.5C100.7,110.3,100.7,116.9,100.7,116.9z M100.7,103.6H41.2v-3.8l2.9-2.8h26.8h26.8l2.9,2.8
	L100.7,103.6L100.7,103.6z"/>
</svg>
